Yaru++/apps/16/nuvolaplayer.svg

<svg height="16" width="16" xmlns="http://www.w3.org/2000/svg">
  <path d="m8.640625 1.6679688c-2.159.0016-3.9930406 1.3312318-4.8691406 3.2324218l-.060547.1289063-.1386719.00977c-1.9940999.1452456-3.5722655 1.8703356-3.5722655 3.9687456 0 2.1928905 1.7160906 3.9921875 3.8378906 3.9921875h4.8046875 4.4804689c1.591 0 2.876953-1.350381 2.876953-2.988281 0-1.2420503-.746888-2.2850653-1.804688-2.7343752l-.136718-.0585938-.009766-.1484375c-.1356-2.9931-2.486897-5.4001838-5.4042968-5.4023437zm-.00195 1h.00195c2.3676.0022 4.291297 1.9522056 4.404297 4.4472656v.0097656l.05078.7753906.703125.296875c.701.29774 1.195313.9729232 1.195313 1.8144534.010001 1.11411-.845993 1.988281-1.871093 1.988281h-4.4785158-4.8066406c-1.5562 0-2.8378906-1.321078-2.8378906-2.9921875 0-1.59695 1.1845312-2.8663062 2.6445312-2.9726563l.7226563-.0507812.3105469-.6621094v-.00391c.7282-1.58041 2.2125375-2.6487807 3.9609375-2.6503906zm-1.7064716 2.4506753.0677966 5.8813559 4-3z" fill="#808080"/>
</svg>

<svg xmlns="http://www.w3.org/2000/svg" width="16" height="16" version="1.1">
 <g label="status" transform="translate(-1152.9998,-73.000015)" style="fill:#808080">
  <path style="fill:#808080" d="m 8.640625,1.6679688 c -2.159,0.0016 -3.9930406,1.3312318 -4.8691406,3.2324218 l -0.060547,0.1289063 -0.1386719,0.00977 C 1.5781656,5.1843125 0,6.9094025 0,9.0078125 0,11.200703 1.7160906,13 3.8378906,13 H 8.6425781 13.123047 C 14.714047,13 16,11.649619 16,10.011719 16,8.7696687 15.253112,7.7266537 14.195312,7.2773438 L 14.058594,7.21875 14.048828,7.0703125 c -0.1356,-2.9931 -2.486897,-5.4001838 -5.4042968,-5.4023437 z m -0.00195,1 h 0.00195 c 2.3676,0.0022 4.291297,1.9522056 4.404297,4.4472656 V 7.125 l 0.05078,0.7753906 0.703125,0.296875 c 0.701,0.29774 1.195313,0.9729232 1.195313,1.8144534 C 15.004141,11.125829 14.148147,12 13.123047,12 H 8.6445312 3.8378906 C 2.2816906,12 1,10.678922 1,9.0078125 1,7.4108625 2.1845312,6.1415063 3.6445312,6.0351562 L 4.3671875,5.984375 4.6777344,5.3222656 v -0.00391 c 0.7282,-1.58041 2.2125375,-2.6487807 3.9609375,-2.6503906 z M 6.9322034,5.1186441 7,11 11,8 Z" transform="translate(1152.9998,73.000015)"/>
 </g>
</svg>
